X:1
T:Der Lindenbaum
T:Melodie: Frank Schubert 1826 Satz: Friedrich Silcher
T:Text: Wilhelm Müller 1822
T:Der Lindenbaum
T:CPDL, Creative Commons Attribution Non Commercial 3.0
C:Friedrich Silcher
Z:CPDL, Creative Commons Attribution Non Commercial 3.0
%%score [ ( 1 2 ) ( 3 4 ) ]
L:1/8
Q:1/4=88
M:3/4
K:Bb
V:1 treble-8 nm="Tenor"
V:2 treble-8 
V:3 bass nm="Bass"
V:4 bass 
V:1
"^In ruhiger Bewegung.\nEinfach und innig vorzutragen." f | f3 d dd | d2 B2 z B | c3 d e>c | d4 z | %5
w: 1.~Am|Brun- nen vor dem|To- re, da|steht ein Lin- den-|baum;|
w: 2.~Ich|musst' auch heu- te|wan- dern vor-|bei in tie- fer|Nacht,|
w: 3.~Die|kal- ten Win- de|blie- sen mir|grad' ins An- ge-|sicht,|
 f | f3 d dd | d2 B2 z B | c3 d (3fec | B4 z B | c3 c cc | d>e f2 z!<(! f!<)! |!>(! g3!>)! f dB | %13
w: ich|träumt' in sei- nem|Schat- ten, so|man- chen sü- * ßen|Traum. Ich|schnitt in sei- ne|Rin- * de so|man- ches lie- be|
w: da|hab' ich noch im|Dun- keln die|Au- gen zu- * ge-|macht. Und|sei- ne Zwei- ge|rausch- * ten, als|rie- fen sie mir|
w: der|Hut flog mir vom|Kop- fe, ich|wen- de- te _ mich|nicht. Nun|bin ich man- che|Stun- * de ent-|fernt von je- nem|
 c4 z c | c3 c cc | d>e f2 z f | (b2 f)d ec | f4 z f | (b2 f)d (3fec | B4 z |] %20
w: Wort; es|zog in Freud' und|Lei- * de zu|ihm _ mich im- mer|fort, zu|ihm _ mich * * *|fort.|
w: zu: Komm|her zu mir, Ge-|sel- * le, hier|find'st _ du dei- ne|Ruh, hier|find'st _ du * * *|Ruh'!|
w: Ort, und|im- mer hör' ich's|rau- * schen: Du|fän- * dest Ru- he|dort, du|fän- * dest * * *|dort!|
V:2
 d | d3 B BB | B2 F2 x F | A3 B c>A | B4 x | d | d3 B BB | B2 F2 x F | A3 B (3dcA | F4 x B | %10
w: ||||||||||
w: ||||||||||
w: ||||||||||
 A3 A AA | B>c d2 x d | e3 d BB | A4 x A | A3 A AA | B>c d2 x d | d3 B cA | B4 x d | d3 B AA | %19
w: ||||||||* * im- mer|
w: ||||||||* * dei- ne|
w: ||||||||* * Ru- he|
 B4 x |] %20
w: |
w: |
w: |
V:3
[K:Eb] B, | B,3 F, F,F, | F,2 D,2 z D, | F,3 F, F,>F, | F,4 z | B, | B,3 F, F,F, | F,2 D,2 z D, | %8
 F,3 F, F,E, | D,4 z F, |"^schnitt in sei-" F,>F, F,3 F, | F,2 F,2 z B, | B,3 B, F,F, | F,4 z F, | %14
"^zog in Freud'" F,>F, F,3 F, | F,2 F,2 z F, | (F,2 B,)F, F,F, | F,4 z F, | (F,2 B,)F, F,E, | %19
 F,4 z |] %20
V:4
[K:Eb] B,, | B,,3 B,, B,,B,, | B,,2 B,,2 x B,, | F,3 F, F,>F, | B,,4 x | B,, | B,,3 B,, B,,B,, | %7
 B,,2 B,,2 x B,, | F,3 F, F,,F,, | B,,4 x D, | F,>F, F,3 F, | B,,2 B,,2 x B, | B,3 B, B,,D, | %13
 F,4 x F, | F,>F, F,3 F, | B,,2 B,,2 x B,, | B,,D, F,F, F,E, | D,4 x B,, | B,,D, F,F, F,F,, | %19
 B,,4 x |] %20

